X: 2
T:The Crazy Reel
M:4/4
L:1/8
C:Dan Beimborn
N:Composed 4/95
K:C
|:D2|G,GBG cGBG|_B,FAF _BFAF|G,G=BG cGBG|dBGB cAFA|
G,GBG cGBG|_B,FAF _BFAF|G,G=BG cGBG| cAFA G2 :|
|:^c2|d2 Gd cAFA|(3ddd  Gd c2 c^c|d2 Gd cAFA|GA_Bc d2 dc|
d2 Gd cAFA|d2 Gd (3ccc cA|dggf g2 dc|AFCF D2 :|

